X: 5160
T: Brightness 0f 1704, The
R: waltz
M: 3/4
K: Emajor
B,|E3 B GB|{B}c3 e cB|((3GFE) F2 ((3FGF)|E2 C B,3|((3CEG) F [EC] [EB,]2|
([GB] [Gc]) [Be] {g}a3|gf e2 ((3cBG)|E F3 ((3GFE)|C (B,/C/E/G/) F3|[EC] [EB,]3 z:|
ga b2 ge|[fd]3 (g/a/g/f/) e|c ((3ABc) [ce] [ce] ([Be]|[Be])2 ga ((3gfe)|
b2 (c'/b/e/c/ B/G/E/C/)|B,3 ((3CEG) (F|F2) G/F/ E C2|((3B,CE) [EC] [EB,]3:|

